app/dist/common/images/shenzhen-kangtai-b.svg

<svg height="18" viewBox="0 0 18 18" width="18" xmlns="http://www.w3.org/2000/svg"><path d="m0 0h18v18h-18z" fill="#f0f3fa"/><g fill="#438c96"><circle cx="7" cy="5" r="1"/><path d="m12.14 5h-.28l-.86 2.96 1.14 5.04h.29l-1.14-5.04z"/><path d="m12.71 5h-.28l-.86 2.96 1.14 5.04h.29l-1.14-5.04.84-2.96z"/><path d="m11.49 5h-2.97l-.66 1.85v-.85h-2.86v7h2v-2.9l.29-.54v-1.56h.32l.1.16v1.4l.29.55v2.89h3.7l-1.08-4.92.88-3.08zm-.78 2h-5.41v.58h5.2l.2-.58z" fill-rule="evenodd"/></g></svg>

<!-- by TradingView --><svg width="18" height="18" viewBox="0 0 18 18" xmlns="http://www.w3.org/2000/svg"><path fill="#F0F3FA" d="M0 0h18v18H0z"/><circle cx="7" cy="5" r="1" fill="#438C96"/><path d="M12.14 5h-.28L11 7.96 12.14 13h.29l-1.14-5.04.85-2.96Z" fill="#438C96"/><path d="M12.71 5h-.28l-.86 2.96L12.71 13H13l-1.14-5.04L12.7 5Z" fill="#438C96"/><path fill-rule="evenodd" d="M11.49 5H8.52l-.66 1.85V6H5v7h2v-2.9l.29-.54V8h.32l.1.16v1.4l.29.55V13h3.7l-1.08-4.92L11.5 5Zm-.78 2H5.3v.58h5.2L10.7 7Z" fill="#438C96"/></svg>
